icons-rebrand/svg/alarm-regular.svg

<svg width="32" height="32" viewBox="0 0 32 32" fill="none" xmlns="http://www.w3.org/2000/svg">
<path d="M24.7921 24.768C26.2823 23.0951 27.2598 21.0287 27.6079 18.8155C27.9559 16.6023 27.6599 14.3356 26.7551 12.286C27.5883 11.0489 27.9141 9.53878 27.6651 8.06814C27.416 6.5975 26.6112 5.27886 25.4171 4.38504C24.2349 3.50097 22.7562 3.10928 21.2913 3.29219C19.8265 3.47511 18.4895 4.2184 17.5611 5.36604C17.0439 5.29271 16.5224 5.25395 16.0001 5.25004C15.4691 5.25404 14.9391 5.29404 14.4131 5.37004C13.4938 4.21377 12.1562 3.46595 10.6897 3.28835C9.22324 3.11074 7.74581 3.51765 6.57706 4.42104C5.38401 5.30748 4.57935 6.62039 4.33098 8.08582C4.08261 9.55125 4.40973 11.056 5.24406 12.286C4.33967 14.3348 4.04358 16.6005 4.3911 18.813C4.73862 21.0254 5.71508 23.0912 7.20406 24.764L4.47206 27.467C4.40016 27.5359 4.34269 27.6183 4.30298 27.7096C4.26327 27.8009 4.24213 27.8991 4.24079 27.9987C4.23945 28.0982 4.25793 28.197 4.29516 28.2893C4.3324 28.3816 4.38763 28.4656 4.45765 28.5364C4.52767 28.6071 4.61107 28.6632 4.70299 28.7014C4.79491 28.7396 4.89352 28.7591 4.99305 28.7588C5.09259 28.7585 5.19107 28.7384 5.28275 28.6996C5.37444 28.6608 5.45749 28.6042 5.52706 28.533L8.26606 25.823C10.4002 27.7081 13.1493 28.7488 15.9968 28.7496C18.8443 28.7503 21.594 27.711 23.7291 25.827L26.4731 28.534C26.6147 28.6738 26.806 28.7516 27.005 28.7503C27.204 28.749 27.3943 28.6687 27.5341 28.527C27.6738 28.3854 27.7516 28.1941 27.7503 27.9951C27.749 27.7961 27.6687 27.6058 27.5271 27.466L24.7921 24.768ZM21.3721 4.79504C21.9238 4.70992 22.4871 4.73652 23.0283 4.87326C23.5696 5.01 24.0779 5.25409 24.5231 5.59104C25.292 6.16809 25.8461 6.98558 26.0972 7.9136C26.3483 8.84163 26.2821 9.82696 25.9091 10.713C24.38 8.30626 22.0301 6.53551 19.2951 5.72904C19.8895 5.23447 20.6076 4.91153 21.3721 4.79504ZM5.79706 8.42004C5.87937 7.86621 6.07002 7.33404 6.35811 6.85395C6.64621 6.37385 7.0261 5.95523 7.47606 5.62204C8.22337 5.03598 9.1506 4.72687 10.1001 4.74729C11.0496 4.76771 11.9626 5.11639 12.6841 5.73404C9.95726 6.54362 7.61523 8.31204 6.09006 10.713C5.78606 9.98947 5.68477 9.1968 5.79706 8.42004ZM5.75006 17C5.75298 14.2825 6.83382 11.677 8.75544 9.75541C10.6771 7.83379 13.2825 6.75295 16.0001 6.75004C17.3502 6.73544 18.6896 6.9906 19.9398 7.50055C21.1899 8.01049 22.3257 8.76495 23.2804 9.71967C24.2351 10.6744 24.9896 11.8102 25.4996 13.0603C26.0095 14.3105 26.2647 15.6499 26.2501 17C26.2501 19.7185 25.1702 22.3256 23.2479 24.2479C21.3257 26.1701 18.7185 27.25 16.0001 27.25C13.2816 27.25 10.6745 26.1701 8.75222 24.2479C6.82997 22.3256 5.75006 19.7185 5.75006 17Z" fill="#0F0F0F"/>
<path d="M16.75 16.69V12C16.75 11.8011 16.671 11.6103 16.5303 11.4697C16.3897 11.329 16.1989 11.25 16 11.25C15.8011 11.25 15.6103 11.329 15.4697 11.4697C15.329 11.6103 15.25 11.8011 15.25 12V17C15.2502 17.1988 15.3293 17.3895 15.47 17.53L17.47 19.53C17.5387 19.6037 17.6215 19.6628 17.7135 19.7038C17.8055 19.7448 17.9048 19.7668 18.0055 19.7686C18.1062 19.7704 18.2062 19.7518 18.2996 19.7141C18.393 19.6764 18.4778 19.6203 18.549 19.549C18.6203 19.4778 18.6764 19.393 18.7141 19.2996C18.7518 19.2062 18.7704 19.1062 18.7686 19.0055C18.7668 18.9048 18.7448 18.8055 18.7038 18.7135C18.6628 18.6215 18.6037 18.5387 18.53 18.47L16.75 16.69Z" fill="#0F0F0F"/>
</svg>

<svg width="32" height="32" viewBox="0 0 32 32" fill="none" xmlns="http://www.w3.org/2000/svg"><path d="M24.792 24.768a11.676 11.676 0 0 0 1.963-12.482 5.813 5.813 0 0 0-1.338-7.901 5.708 5.708 0 0 0-7.856.981A11.747 11.747 0 0 0 16 5.25c-.531.004-1.061.044-1.587.12a5.62 5.62 0 0 0-7.836-.949 5.766 5.766 0 0 0-1.333 7.865 11.676 11.676 0 0 0 1.96 12.478l-2.732 2.703a.75.75 0 1 0 1.055 1.066l2.739-2.71a11.682 11.682 0 0 0 15.463.004l2.744 2.707a.75.75 0 0 0 1.054-1.068l-2.735-2.698zm-3.42-19.973a4.168 4.168 0 0 1 3.151.796 4.312 4.312 0 0 1 1.386 5.122 11.785 11.785 0 0 0-6.614-4.984 4.248 4.248 0 0 1 2.077-.934zM5.797 8.42a4.261 4.261 0 0 1 1.679-2.798 4.109 4.109 0 0 1 5.208.112 11.786 11.786 0 0 0-6.594 4.979 4.323 4.323 0 0 1-.293-2.293zM5.75 17A10.261 10.261 0 0 1 16 6.75 10.141 10.141 0 0 1 26.25 17a10.25 10.25 0 0 1-20.5 0z" fill="#0F0F0F"/><path d="M16.75 16.69V12a.75.75 0 1 0-1.5 0v5a.75.75 0 0 0 .22.53l2 2a.75.75 0 1 0 1.06-1.06l-1.78-1.78z" fill="#0F0F0F"/></svg>
